Newaita-dark/apps/16/com.github.treagod.spectator.svg

<svg height="16" viewBox="0 0 16 16" width="16" xmlns="http://www.w3.org/2000/svg" xmlns:xlink="http://www.w3.org/1999/xlink"><linearGradient id="a"><stop offset="0" stop-opacity=".313726"/><stop offset=".222222" stop-opacity=".27451"/><stop offset="1" stop-opacity="0"/></linearGradient><radialGradient id="b" cx="450.908936" cy="189.579361" gradientTransform="matrix(.00000009 -.0390662 -.0703192 -.00000005 22.261576 31.797665)" gradientUnits="userSpaceOnUse" r="21.166656" xlink:href="#a"/><radialGradient id="c" cx="450.908936" cy="189.579361" gradientTransform="matrix(-.00000009 .0390662 .0703192 .00000005 -6.385059 -3.763741)" gradientUnits="userSpaceOnUse" r="21.166656" xlink:href="#a"/><radialGradient id="d" cx="450.908936" cy="189.579361" gradientTransform="matrix(-.00000009 -.0390662 .0703192 -.00000005 -6.385059 31.797665)" gradientUnits="userSpaceOnUse" r="21.166656" xlink:href="#a"/><radialGradient id="e" cx="450.908936" cy="189.579361" gradientTransform="matrix(.00000009 .0390662 -.0703192 .00000005 22.261575 -3.763741)" gradientUnits="userSpaceOnUse" r="21.166656" xlink:href="#a"/><linearGradient id="f" gradientTransform="matrix(.00668003 0 0 .031253 6.232693 6.719392)" gradientUnits="userSpaceOnUse" x1="255.323059" x2="255.323044" y1="233.5" y2="254.666656"><stop offset="0" stop-opacity=".27451"/><stop offset="1" stop-opacity="0"/></linearGradient><linearGradient id="g" gradientUnits="userSpaceOnUse" x1="275.166656" x2="275.166656" y1="233.5" y2="-168.666656"><stop offset="0" stop-color="#9ccc65"/><stop offset="1" stop-color="#aed581"/></linearGradient><linearGradient id="h" gradientUnits="userSpaceOnUse" x1="7.938262" x2="7.938262" y1="13.6862055" y2="1.11729049998"><stop offset="0" stop-color="#e0e0e0"/><stop offset="1" stop-color="#eee"/></linearGradient><path d="m9.097656 14.015625h1.320313v-.660156h-1.320313zm0 0" fill="url(#b)"/><path d="m6.78125 14.015625h-1.324219v.664063h1.324219zm0 0" fill="url(#c)"/><path d="m6.78125 14.015625h-1.324219v-.660156h1.324219zm0 0" fill="url(#d)"/><path d="m9.097656 14.015625h1.320313v.664063h-1.320313zm0 0" fill="url(#e)"/><path d="m6.78125 13.851562h2.316406v.828126h-2.316406zm0 0" fill="url(#f)"/><path d="m253.975747-168.629428c111.114389 0 201.105795 89.991406 201.105795 201.105795 0 110.989401-89.991406 200.980807-201.105795 200.980807-110.989402 0-201.105796-89.991406-201.105796-200.980807 0-111.114389 90.116394-201.105795 201.105796-201.105795zm0 0" fill="url(#g)" stroke="#333" stroke-linecap="round" stroke-width="3" transform="matrix(.031253 0 0 .031253 0 6.719392)"/><path d="m7.9375 14.015625c-3.480469 0-6.285156-2.800781-6.285156-6.28125 0-.023437 0-.042969 0-.0625.035156 3.453125 2.824218 6.222656 6.285156 6.222656s6.253906-2.769531 6.285156-6.222656v.0625c0 3.480469-2.804687 6.28125-6.285156 6.28125zm0 0" fill-opacity=".196078"/><path d="m7.9375 1.449219c-3.480469 0-6.285156 2.800781-6.285156 6.285156v.058594c.035156-3.453125 2.824218-6.222657 6.285156-6.222657s6.253906 2.769532 6.285156 6.222657c0-.019531 0-.039063 0-.058594 0-3.484375-2.804687-6.285156-6.285156-6.285156zm0 0" fill="#fff" fill-opacity=".392157"/><path d="m7.9375 1.402344c-3.507812 0-6.332031 2.824218-6.332031 6.332031 0 3.503906 2.824219 6.328125 6.332031 6.328125s6.332031-2.824219 6.332031-6.328125c0-3.507813-2.824219-6.332031-6.332031-6.332031zm0 .09375c3.457031 0 6.238281 2.78125 6.238281 6.238281 0 3.453125-2.78125 6.234375-6.238281 6.234375s-6.238281-2.78125-6.238281-6.234375c0-3.457031 2.78125-6.238281 6.238281-6.238281zm0 0" fill="#212121"/><path d="m7.9375 4.753906c-2.566406 0-4.628906 1.328125-4.628906 2.980469 0 1.648437 2.0625 2.976563 4.628906 2.976563s4.632812-1.328126 4.632812-2.976563c0-1.652344-2.066406-2.980469-4.632812-2.980469zm0 .992188c1.648438 0 2.976562.886718 2.976562 1.988281 0 1.097656-1.328124 1.984375-2.976562 1.984375s-2.976562-.886719-2.976562-1.984375c0-1.101563 1.328124-1.988281 2.976562-1.988281zm0 .992187c-.730469 0-1.324219.445313-1.324219.996094 0 .546875.59375.992187 1.324219.992187.734375 0 1.324219-.445312 1.324219-.992187 0-.550781-.589844-.996094-1.324219-.996094zm0 0" fill="url(#h)"/><path d="m7.9375 4.753906c-2.566406 0-4.628906 1.328125-4.628906 2.980469v.082031c.070312-1.613281 2.105468-2.894531 4.628906-2.894531s4.5625 1.28125 4.628906 2.894531c0-.027344.003906-.054687.003906-.082031 0-1.652344-2.066406-2.980469-4.632812-2.980469zm0 1.984375c-.730469 0-1.324219.445313-1.324219.996094 0 .027344.003907.054687.007813.082031.054687-.511718.621094-.910156 1.316406-.910156s1.261719.398438 1.320312.910156c0-.027344.003907-.054687.003907-.082031 0-.550781-.589844-.996094-1.324219-.996094zm-2.972656 1.078125c-.003906.027344-.003906.054688-.003906.082032 0 1.097656 1.328124 1.984374 2.976562 1.984374s2.976562-.886718 2.976562-1.984374c0-.027344 0-.054688 0-.082032-.066406 1.058594-1.367187 1.902344-2.976562 1.902344-1.605469 0-2.910156-.84375-2.972656-1.902344zm0 0" fill="#fff" fill-opacity=".588235"/><path d="m7.9375 5.738281c-1.648438 0-2.976562.886719-2.976562 1.984375 0 .042969.003906.082032.007812.125.09375-1.042968 1.382812-1.863281 2.96875-1.863281 1.589844 0 2.878906.820313 2.972656 1.863281.003906-.042968.003906-.082031.003906-.125 0-1.097656-1.328124-1.984375-2.976562-1.984375zm-4.625 2.109375c-.003906.039063-.003906.082032-.003906.121094 0 1.648438 2.0625 2.976562 4.628906 2.976562s4.632812-1.328124 4.632812-2.976562c0-.039062-.003906-.082031-.003906-.121094-.101562 1.589844-2.125 2.851563-4.628906 2.851563-2.5 0-4.527344-1.261719-4.625-2.851563zm3.3125 0c-.007812.039063-.011719.082032-.011719.121094 0 .550781.59375.992188 1.324219.992188.734375 0 1.324219-.441407 1.324219-.992188 0-.039062-.003907-.082031-.011719-.121094-.078125.492188-.632812.867188-1.3125.867188-.675781 0-1.230469-.375-1.3125-.867188zm0 0" fill-opacity=".235294"/><path d="m959.908384 574.905759c-310.364079 0-559.789092 160.614592-559.789092 360.43804 0 199.351052 249.425013 359.965644 559.789092 359.965644s560.261488-160.614592 560.261488-359.965644c0-199.823448-249.897409-360.43804-560.261488-360.43804zm0 119.988548c199.351052 0 359.965644 107.23386 359.965644 240.449492 0 132.743236-160.614592 239.977096-359.965644 239.977096s-359.965644-107.23386-359.965644-239.977096c0-133.215632 160.614592-240.449492 359.965644-240.449492zm0 119.988548c-88.338026 0-160.142196 53.853128-160.142196 120.460944 0 66.13542 71.80417 119.988548 160.142196 119.988548 88.810421 0 160.142196-53.853128 160.142196-119.988548 0-66.607816-71.331775-120.460944-160.142196-120.460944zm0 0" fill="none" stroke="#212121" stroke-linecap="round" stroke-linejoin="round" stroke-width="11.338583" transform="scale(.00826902)"/></svg>

<?xml version="1.0" encoding="UTF-8"?>
<svg xmlns="http://www.w3.org/2000/svg" xmlns:xlink="http://www.w3.org/1999/xlink" width="16px" height="16px" viewBox="0 0 16 16" version="1.1">
<defs>
<radialGradient id="radial0" gradientUnits="userSpaceOnUse" cx="450.908936" cy="189.579361" fx="450.908936" fy="189.579361" r="21.166656" gradientTransform="matrix(0.0000000870852,-0.0390662,-0.0703192,-0.0000000507693,22.261576,31.797665)">
<stop offset="0" style="stop-color:rgb(0%,0%,0%);stop-opacity:0.313726;"/>
<stop offset="0.222222" style="stop-color:rgb(0%,0%,0%);stop-opacity:0.27451;"/>
<stop offset="1" style="stop-color:rgb(0%,0%,0%);stop-opacity:0;"/>
</radialGradient>
<radialGradient id="radial1" gradientUnits="userSpaceOnUse" cx="450.908936" cy="189.579361" fx="450.908936" fy="189.579361" r="21.166656" gradientTransform="matrix(-0.0000000870852,0.0390662,0.0703192,0.0000000507693,-6.385059,-3.763741)">
<stop offset="0" style="stop-color:rgb(0%,0%,0%);stop-opacity:0.313726;"/>
<stop offset="0.222222" style="stop-color:rgb(0%,0%,0%);stop-opacity:0.27451;"/>
<stop offset="1" style="stop-color:rgb(0%,0%,0%);stop-opacity:0;"/>
</radialGradient>
<radialGradient id="radial2" gradientUnits="userSpaceOnUse" cx="450.908936" cy="189.579361" fx="450.908936" fy="189.579361" r="21.166656" gradientTransform="matrix(-0.0000000870852,-0.0390662,0.0703192,-0.0000000507693,-6.385059,31.797665)">
<stop offset="0" style="stop-color:rgb(0%,0%,0%);stop-opacity:0.313726;"/>
<stop offset="0.222222" style="stop-color:rgb(0%,0%,0%);stop-opacity:0.27451;"/>
<stop offset="1" style="stop-color:rgb(0%,0%,0%);stop-opacity:0;"/>
</radialGradient>
<radialGradient id="radial3" gradientUnits="userSpaceOnUse" cx="450.908936" cy="189.579361" fx="450.908936" fy="189.579361" r="21.166656" gradientTransform="matrix(0.0000000870852,0.0390662,-0.0703192,0.0000000507693,22.261575,-3.763741)">
<stop offset="0" style="stop-color:rgb(0%,0%,0%);stop-opacity:0.313726;"/>
<stop offset="0.222222" style="stop-color:rgb(0%,0%,0%);stop-opacity:0.27451;"/>
<stop offset="1" style="stop-color:rgb(0%,0%,0%);stop-opacity:0;"/>
</radialGradient>
<linearGradient id="linear0" gradientUnits="userSpaceOnUse" x1="255.323059" y1="233.5" x2="255.323044" y2="254.666656" gradientTransform="matrix(0.00668003,0,0,0.031253,6.232693,6.719392)">
<stop offset="0" style="stop-color:rgb(0%,0%,0%);stop-opacity:0.27451;"/>
<stop offset="1" style="stop-color:rgb(0%,0%,0%);stop-opacity:0;"/>
</linearGradient>
<linearGradient id="linear1" gradientUnits="userSpaceOnUse" x1="275.166656" y1="233.5" x2="275.166656" y2="-168.666656" >
<stop offset="0" style="stop-color:rgb(61.176473%,80.000001%,39.607844%);stop-opacity:1;"/>
<stop offset="1" style="stop-color:rgb(68.235296%,83.529413%,50.588238%);stop-opacity:1;"/>
</linearGradient>
<linearGradient id="linear2" gradientUnits="userSpaceOnUse" x1="254" y1="233.5" x2="254" y2="-168.666672" gradientTransform="matrix(0.031253,0,0,0.031253,0,6.38863)">
<stop offset="0" style="stop-color:rgb(87.843138%,87.843138%,87.843138%);stop-opacity:1;"/>
<stop offset="1" style="stop-color:rgb(93.333334%,93.333334%,93.333334%);stop-opacity:1;"/>
</linearGradient>
</defs>
<g id="surface1">
<path style=" stroke:none;fill-rule:nonzero;fill:url(#radial0);" d="M 9.097656 14.015625 L 10.417969 14.015625 L 10.417969 13.355469 L 9.097656 13.355469 Z M 9.097656 14.015625 "/>
<path style=" stroke:none;fill-rule:nonzero;fill:url(#radial1);" d="M 6.78125 14.015625 L 5.457031 14.015625 L 5.457031 14.679688 L 6.78125 14.679688 Z M 6.78125 14.015625 "/>
<path style=" stroke:none;fill-rule:nonzero;fill:url(#radial2);" d="M 6.78125 14.015625 L 5.457031 14.015625 L 5.457031 13.355469 L 6.78125 13.355469 Z M 6.78125 14.015625 "/>
<path style=" stroke:none;fill-rule:nonzero;fill:url(#radial3);" d="M 9.097656 14.015625 L 10.417969 14.015625 L 10.417969 14.679688 L 9.097656 14.679688 Z M 9.097656 14.015625 "/>
<path style=" stroke:none;fill-rule:nonzero;fill:url(#linear0);" d="M 6.78125 13.851562 L 9.097656 13.851562 L 9.097656 14.679688 L 6.78125 14.679688 Z M 6.78125 13.851562 "/>
<path style="fill-rule:nonzero;fill:url(#linear1);stroke-width:3;stroke-linecap:round;stroke-linejoin:miter;stroke:rgb(20%,20%,20%);stroke-opacity:1;stroke-miterlimit:4;" d="M 253.975747 -168.629428 C 365.090136 -168.629428 455.081542 -78.638022 455.081542 32.476367 C 455.081542 143.465768 365.090136 233.457174 253.975747 233.457174 C 142.986345 233.457174 52.869951 143.465768 52.869951 32.476367 C 52.869951 -78.638022 142.986345 -168.629428 253.975747 -168.629428 Z M 253.975747 -168.629428 " transform="matrix(0.031253,0,0,0.031253,0,6.719392)"/>
<path style=" stroke:none;fill-rule:nonzero;fill:rgb(0%,0%,0%);fill-opacity:0.196078;" d="M 7.9375 14.015625 C 4.457031 14.015625 1.652344 11.214844 1.652344 7.734375 C 1.652344 7.710938 1.652344 7.691406 1.652344 7.671875 C 1.6875 11.125 4.476562 13.894531 7.9375 13.894531 C 11.398438 13.894531 14.191406 11.125 14.222656 7.671875 C 14.222656 7.691406 14.222656 7.710938 14.222656 7.734375 C 14.222656 11.214844 11.417969 14.015625 7.9375 14.015625 Z M 7.9375 14.015625 "/>
<path style=" stroke:none;fill-rule:nonzero;fill:rgb(100%,100%,100%);fill-opacity:0.392157;" d="M 7.9375 1.449219 C 4.457031 1.449219 1.652344 4.25 1.652344 7.734375 C 1.652344 7.753906 1.652344 7.773438 1.652344 7.792969 C 1.6875 4.339844 4.476562 1.570312 7.9375 1.570312 C 11.398438 1.570312 14.191406 4.339844 14.222656 7.792969 C 14.222656 7.773438 14.222656 7.753906 14.222656 7.734375 C 14.222656 4.25 11.417969 1.449219 7.9375 1.449219 Z M 7.9375 1.449219 "/>
<path style=" stroke:none;fill-rule:nonzero;fill:rgb(12.941177%,12.941177%,12.941177%);fill-opacity:1;" d="M 7.9375 1.402344 C 4.429688 1.402344 1.605469 4.226562 1.605469 7.734375 C 1.605469 11.238281 4.429688 14.0625 7.9375 14.0625 C 11.445312 14.0625 14.269531 11.238281 14.269531 7.734375 C 14.269531 4.226562 11.445312 1.402344 7.9375 1.402344 Z M 7.9375 1.496094 C 11.394531 1.496094 14.175781 4.277344 14.175781 7.734375 C 14.175781 11.1875 11.394531 13.96875 7.9375 13.96875 C 4.480469 13.96875 1.699219 11.1875 1.699219 7.734375 C 1.699219 4.277344 4.480469 1.496094 7.9375 1.496094 Z M 7.9375 1.496094 "/>
<path style=" stroke:none;fill-rule:nonzero;fill:url(#linear2);" d="M 7.9375 4.753906 C 5.371094 4.753906 3.308594 6.082031 3.308594 7.734375 C 3.308594 9.382812 5.371094 10.710938 7.9375 10.710938 C 10.503906 10.710938 12.570312 9.382812 12.570312 7.734375 C 12.570312 6.082031 10.503906 4.753906 7.9375 4.753906 Z M 7.9375 5.746094 C 9.585938 5.746094 10.914062 6.632812 10.914062 7.734375 C 10.914062 8.832031 9.585938 9.71875 7.9375 9.71875 C 6.289062 9.71875 4.960938 8.832031 4.960938 7.734375 C 4.960938 6.632812 6.289062 5.746094 7.9375 5.746094 Z M 7.9375 6.738281 C 7.207031 6.738281 6.613281 7.183594 6.613281 7.734375 C 6.613281 8.28125 7.207031 8.726562 7.9375 8.726562 C 8.671875 8.726562 9.261719 8.28125 9.261719 7.734375 C 9.261719 7.183594 8.671875 6.738281 7.9375 6.738281 Z M 7.9375 6.738281 "/>
<path style=" stroke:none;fill-rule:nonzero;fill:rgb(100%,100%,100%);fill-opacity:0.588235;" d="M 7.9375 4.753906 C 5.371094 4.753906 3.308594 6.082031 3.308594 7.734375 C 3.308594 7.761719 3.308594 7.789062 3.308594 7.816406 C 3.378906 6.203125 5.414062 4.921875 7.9375 4.921875 C 10.460938 4.921875 12.5 6.203125 12.566406 7.816406 C 12.566406 7.789062 12.570312 7.761719 12.570312 7.734375 C 12.570312 6.082031 10.503906 4.753906 7.9375 4.753906 Z M 7.9375 6.738281 C 7.207031 6.738281 6.613281 7.183594 6.613281 7.734375 C 6.613281 7.761719 6.617188 7.789062 6.621094 7.816406 C 6.675781 7.304688 7.242188 6.90625 7.9375 6.90625 C 8.632812 6.90625 9.199219 7.304688 9.257812 7.816406 C 9.257812 7.789062 9.261719 7.761719 9.261719 7.734375 C 9.261719 7.183594 8.671875 6.738281 7.9375 6.738281 Z M 4.964844 7.816406 C 4.960938 7.84375 4.960938 7.871094 4.960938 7.898438 C 4.960938 8.996094 6.289062 9.882812 7.9375 9.882812 C 9.585938 9.882812 10.914062 8.996094 10.914062 7.898438 C 10.914062 7.871094 10.914062 7.84375 10.914062 7.816406 C 10.847656 8.875 9.546875 9.71875 7.9375 9.71875 C 6.332031 9.71875 5.027344 8.875 4.964844 7.816406 Z M 4.964844 7.816406 "/>
<path style=" stroke:none;fill-rule:nonzero;fill:rgb(0%,0%,0%);fill-opacity:0.235294;" d="M 7.9375 5.738281 C 6.289062 5.738281 4.960938 6.625 4.960938 7.722656 C 4.960938 7.765625 4.964844 7.804688 4.96875 7.847656 C 5.0625 6.804688 6.351562 5.984375 7.9375 5.984375 C 9.527344 5.984375 10.816406 6.804688 10.910156 7.847656 C 10.914062 7.804688 10.914062 7.765625 10.914062 7.722656 C 10.914062 6.625 9.585938 5.738281 7.9375 5.738281 Z M 3.3125 7.847656 C 3.308594 7.886719 3.308594 7.929688 3.308594 7.96875 C 3.308594 9.617188 5.371094 10.945312 7.9375 10.945312 C 10.503906 10.945312 12.570312 9.617188 12.570312 7.96875 C 12.570312 7.929688 12.566406 7.886719 12.566406 7.847656 C 12.464844 9.4375 10.441406 10.699219 7.9375 10.699219 C 5.4375 10.699219 3.410156 9.4375 3.3125 7.847656 Z M 6.625 7.847656 C 6.617188 7.886719 6.613281 7.929688 6.613281 7.96875 C 6.613281 8.519531 7.207031 8.960938 7.9375 8.960938 C 8.671875 8.960938 9.261719 8.519531 9.261719 7.96875 C 9.261719 7.929688 9.257812 7.886719 9.25 7.847656 C 9.171875 8.339844 8.617188 8.714844 7.9375 8.714844 C 7.261719 8.714844 6.707031 8.339844 6.625 7.847656 Z M 6.625 7.847656 "/>
<path style="fill:none;stroke-width:11.338583;stroke-linecap:round;stroke-linejoin:round;stroke:rgb(12.941177%,12.941177%,12.941177%);stroke-opacity:1;stroke-miterlimit:4;" d="M 959.908384 574.905759 C 649.544305 574.905759 400.119292 735.520351 400.119292 935.343799 C 400.119292 1134.694851 649.544305 1295.309443 959.908384 1295.309443 C 1270.272463 1295.309443 1520.169872 1134.694851 1520.169872 935.343799 C 1520.169872 735.520351 1270.272463 574.905759 959.908384 574.905759 Z M 959.908384 694.894307 C 1159.259436 694.894307 1319.874028 802.128167 1319.874028 935.343799 C 1319.874028 1068.087035 1159.259436 1175.320895 959.908384 1175.320895 C 760.557332 1175.320895 599.94274 1068.087035 599.94274 935.343799 C 599.94274 802.128167 760.557332 694.894307 959.908384 694.894307 Z M 959.908384 814.882855 C 871.570358 814.882855 799.766188 868.735983 799.766188 935.343799 C 799.766188 1001.479219 871.570358 1055.332347 959.908384 1055.332347 C 1048.718805 1055.332347 1120.05058 1001.479219 1120.05058 935.343799 C 1120.05058 868.735983 1048.718805 814.882855 959.908384 814.882855 Z M 959.908384 814.882855 " transform="matrix(0.00826902,0,0,0.00826902,0,0)"/>
</g>
</svg>
